X:1698
L:1/8
Q:1/4=120
M:4/4
K:C
 C |[K:D]"^May the 16th and the Year 1835" A | dd de d2 AG | FA GE D3 A | de ef e2 de | fd BG A3 :: 
 A | d>e f3 B cd | e3 c BA dA | G3 F GA BG | FG A z AA dd | ef d2 AG FA | GF E2 D3 :|

